X:76
T:Reel 76
M:4/4
K:Dmaj
L:1/8
D2FD FAAB|cAdA cAGE|D2FD FAAB|cAGE EDD2:|d2Ad dfed|c2AB cdec|d2Ad dfed|cAGE EDD2|d2Ad d2AB|cded cABd|Acde f2ed|cAGE EDD2|
